src/assets/logos/NJ.svg

<svg width="514" height="250" viewBox="0 0 514 250" fill="none" xmlns="http://www.w3.org/2000/svg">
<path d="M0 55.2147C0 53.3402 0.596455 51.8916 1.78937 50.8691C2.98228 49.6762 4.3456 49.0798 5.87935 49.0798L17.1268 48.8241H37.3211C37.8323 48.8241 38.4288 48.6537 39.1104 48.3129C40.4738 47.2904 41.9223 46.1827 43.456 44.9898C44.9898 43.6265 46.4383 42.3483 47.8016 41.1554C48.6537 40.6442 49.0798 39.9625 49.0798 39.1104V5.3681C49.4206 2.30062 50.9543 0.596458 53.681 0.25562L127.301 0C135.31 0 141.871 0 146.984 0C152.267 0 156.697 0 160.276 0C164.025 0 167.263 0 169.99 0C172.716 0 175.528 0 178.425 0C181.322 0 184.56 0 188.139 0C191.888 0 196.575 0 202.198 0C203.903 0 205.266 0.596458 206.288 1.78937C208.333 3.83436 211.401 6.98705 215.491 11.2475C219.751 15.5078 224.097 20.0239 228.528 24.7955C233.129 29.3967 237.389 33.8275 241.309 38.0879C245.399 42.3483 248.381 45.4158 250.256 47.2904C251.278 48.3129 251.789 49.6762 251.789 51.3804V243.865C251.789 245.399 251.193 246.762 250 247.955C248.977 249.148 247.614 249.744 245.91 249.744H210.123C208.589 249.744 207.226 249.148 206.033 247.955C204.84 246.762 204.243 245.399 204.243 243.865V207.311C204.243 205.607 204.84 204.243 206.033 203.221C207.226 202.028 208.589 201.432 210.123 201.432H238.753C240.627 201.432 242.076 200.835 243.098 199.642C244.121 198.449 244.632 197.001 244.632 195.297V168.456C244.632 166.752 244.121 165.303 243.098 164.11L205.777 126.789C204.755 125.767 204.243 124.404 204.243 122.699V61.0941C204.243 59.3899 204.84 57.9414 206.033 56.7485C207.226 55.5556 208.589 54.9591 210.123 54.9591H242.331C244.035 54.9591 244.888 54.1922 244.888 52.6585V51.1248C244.888 49.591 244.035 48.8241 242.331 48.8241H212.423C209.015 48.3129 207.311 46.3531 207.311 42.9448V11.7587C207.311 10.9066 207.226 10.2249 207.055 9.7137C205.862 7.15746 203.903 5.87935 201.176 5.87935C194.53 6.04976 189.332 6.13497 185.583 6.13497C181.834 5.96455 178.937 5.87935 176.892 5.87935C174.847 5.87935 173.313 5.96455 172.29 6.13497C171.438 6.30539 170.586 6.81664 169.734 7.66872L139.315 37.3211C138.122 38.514 137.014 39.6217 135.992 40.6442C135.14 41.6667 134.288 42.604 133.436 43.456C132.583 44.3081 131.817 45.075 131.135 45.7566C130.624 46.0975 130.112 46.5235 129.601 47.0348C129.09 47.3756 128.494 47.7164 127.812 48.0573C127.471 48.2277 127.301 48.3129 127.301 48.3129C126.96 48.4833 126.534 48.5685 126.022 48.5685C125.682 48.5685 125.341 48.6537 125 48.8241H53.681C52.1472 48.8241 50.7839 49.4206 49.591 50.6135C48.3981 51.8064 47.8016 53.2549 47.8016 54.9591C47.8016 59.0491 47.8016 64.8432 47.8016 72.3415C47.972 79.8398 48.0573 88.3606 48.0573 97.9039C48.0573 107.277 48.0573 117.331 48.0573 128.068C48.0573 138.804 48.0573 149.54 48.0573 160.276C48.0573 170.842 48.0573 181.067 48.0573 190.951C48.0573 200.665 48.0573 209.271 48.0573 216.769V243.865C48.0573 245.399 47.4608 246.762 46.2679 247.955C45.075 249.148 43.7117 249.744 42.1779 249.744H6.39059C4.68643 249.744 3.2379 249.148 2.04499 247.955C1.02249 246.762 0.511247 245.399 0.511247 243.865C0.511247 238.923 0.511247 233.129 0.511247 226.483C0.511247 219.666 0.511247 212.423 0.511247 204.755C0.511247 196.915 0.42604 188.906 0.255624 180.726C0.255624 172.376 0.255624 164.281 0.255624 156.442C0.255624 137.866 0.170416 118.439 0 98.1595V55.2147Z" fill="#FF4D00"/>
<path d="M267.894 202.198C266.189 202.198 264.741 201.687 263.548 200.665C262.526 199.472 262.014 198.023 262.014 196.319V151.585C262.014 149.881 262.611 148.432 263.804 147.239L308.538 102.505C309.56 101.483 310.924 100.971 312.628 100.971H398.773C400.648 100.971 402.096 101.568 403.119 102.761C404.311 103.783 404.908 105.147 404.908 106.851V143.149C404.908 144.683 404.311 146.046 403.119 147.239C402.096 148.432 400.648 149.029 398.773 149.029H271.984C270.45 149.029 269.683 149.796 269.683 151.329V152.607C269.683 154.141 270.45 154.908 271.984 154.908H303.681C305.215 154.908 306.578 155.504 307.771 156.697C308.964 157.89 309.56 159.339 309.56 161.043V196.063C309.56 197.768 310.157 199.216 311.35 200.409C312.543 201.431 313.991 201.943 315.695 201.943H387.27C388.633 202.113 389.826 202.624 390.849 203.476L430.726 242.076C431.578 242.928 432.345 243.524 433.027 243.865C433.879 244.035 435.242 244.121 437.117 244.121C438.991 244.121 441.633 244.121 445.041 244.121C448.449 243.95 453.136 243.95 459.1 244.121C460.975 244.121 462.423 243.524 463.446 242.331C464.639 241.138 465.235 239.69 465.235 237.986V61.0941C465.235 59.5603 465.746 58.2822 466.769 57.2597C467.962 56.0668 469.41 55.4704 471.114 55.4704H504.346C505.879 55.4704 506.646 54.6183 506.646 52.9141V51.636C506.646 50.7839 506.391 50.1875 505.879 49.8466C505.538 49.5058 504.346 49.3354 502.301 49.3354C500.426 49.165 497.529 49.165 493.609 49.3354C489.69 49.3354 484.151 49.4206 476.994 49.591C469.836 49.591 460.804 49.591 449.898 49.591C438.991 49.591 425.699 49.5058 410.02 49.3354C406.442 49.165 403.119 49.0798 400.051 49.0798C396.984 49.0798 394.513 49.0798 392.638 49.0798C391.786 49.0798 391.189 48.9946 390.849 48.8241C389.997 48.8241 389.059 48.6537 388.037 48.3129C387.696 48.1425 387.526 48.0573 387.526 48.0573C386.844 47.7164 386.162 47.3756 385.481 47.0348C384.969 46.5235 384.543 46.0975 384.202 45.7567L375.767 37.3211L345.859 7.66871C344.836 6.64622 343.473 6.13497 341.769 6.13497H312.22C310.686 6.13497 309.919 5.28289 309.919 3.57873V2.81186C309.919 1.1077 310.686 0.255624 312.22 0.255624H388.037L462.935 0.511244C464.468 0.511244 465.832 1.1077 467.024 2.30062L512.014 47.546C513.207 48.7389 513.804 50.1023 513.804 51.636L513.548 199.387C513.548 201.261 512.952 202.71 511.759 203.732L467.024 248.211C465.491 249.404 464.127 250 462.935 250H385.481L314.162 249.744C311.435 249.233 309.901 247.614 309.56 244.888V212.168C309.56 211.316 309.219 210.549 308.538 209.867C307.174 208.674 305.726 207.566 304.192 206.544C302.658 205.351 301.21 204.158 299.847 202.965C299.506 202.624 298.909 202.454 298.057 202.454L267.894 202.198Z" fill="#FF4D00"/>
</svg>

<svg width="514" height="250" fill="none" xmlns="http://www.w3.org/2000/svg"><path d="M0 55.215c0-1.875.596-3.323 1.79-4.346 1.192-1.193 2.556-1.79 4.09-1.79l11.247-.255H37.32c.511 0 1.108-.17 1.79-.511a312.292 312.292 0 004.345-3.323 747.427 747.427 0 014.346-3.835c.852-.51 1.278-1.193 1.278-2.045V5.368C49.42 2.301 50.954.596 53.68.256L127.301 0h74.897c1.705 0 3.068.596 4.09 1.79 2.045 2.044 5.113 5.197 9.203 9.457a509.28 509.28 0 0113.037 13.549 444.726 444.726 0 0112.781 13.292c4.09 4.26 7.072 7.328 8.947 9.202 1.022 1.023 1.533 2.386 1.533 4.09v192.485c0 1.534-.596 2.897-1.789 4.09-1.023 1.193-2.386 1.789-4.09 1.789h-35.787c-1.534 0-2.897-.596-4.09-1.789s-1.79-2.556-1.79-4.09v-36.554c0-1.704.597-3.068 1.79-4.09 1.193-1.193 2.556-1.789 4.09-1.789h28.63c1.874 0 3.323-.597 4.345-1.79 1.023-1.193 1.534-2.641 1.534-4.345v-26.841c0-1.704-.511-3.153-1.534-4.346l-37.321-37.321c-1.022-1.022-1.534-2.385-1.534-4.09V61.094c0-1.704.597-3.153 1.79-4.346 1.193-1.192 2.556-1.789 4.09-1.789h32.208c1.704 0 2.557-.767 2.557-2.3v-1.534c0-1.534-.853-2.3-2.557-2.3h-29.908c-3.408-.512-5.112-2.472-5.112-5.88V11.759c0-.852-.085-1.534-.256-2.045-1.193-2.557-3.152-3.835-5.879-3.835-6.646.17-11.844.256-15.593.256-3.749-.17-6.646-.256-8.691-.256-2.045 0-3.579.086-4.602.256-.852.17-1.704.682-2.556 1.534L139.315 37.32l-3.323 3.323a41.963 41.963 0 01-2.556 2.812l-2.301 2.3a10.16 10.16 0 00-1.534 1.279c-.511.34-1.107.681-1.789 1.022l-.511.256c-.341.17-.767.255-1.279.255-.34 0-.681.086-1.022.256H53.681c-1.534 0-2.897.597-4.09 1.79-1.193 1.192-1.79 2.64-1.79 4.345v17.382c.171 7.499.256 16.02.256 25.563V243.865c0 1.534-.596 2.897-1.79 4.09-1.192 1.193-2.555 1.789-4.09 1.789H6.392c-1.705 0-3.153-.596-4.346-1.789-1.023-1.193-1.534-2.556-1.534-4.09v-17.382-21.728c0-7.84-.085-15.849-.255-24.029v-24.284c0-18.576-.086-38.003-.256-58.283V55.215zM267.894 202.198c-1.705 0-3.153-.511-4.346-1.533-1.022-1.193-1.534-2.642-1.534-4.346v-44.734c0-1.704.597-3.153 1.79-4.346l44.734-44.734c1.022-1.022 2.386-1.534 4.09-1.534h86.145c1.875 0 3.323.597 4.346 1.79 1.192 1.022 1.789 2.386 1.789 4.09v36.298c0 1.534-.597 2.897-1.789 4.09-1.023 1.193-2.471 1.79-4.346 1.79H271.984c-1.534 0-2.301.767-2.301 2.3v1.278c0 1.534.767 2.301 2.301 2.301h31.697c1.534 0 2.897.596 4.09 1.789s1.789 2.642 1.789 4.346v35.02c0 1.705.597 3.153 1.79 4.346 1.193 1.022 2.641 1.534 4.345 1.534h71.575c1.363.17 2.556.681 3.579 1.533l39.877 38.6c.852.852 1.619 1.448 2.301 1.789.852.17 2.215.256 4.09.256h7.924c3.408-.171 8.095-.171 14.059 0 1.875 0 3.323-.597 4.346-1.79 1.193-1.193 1.789-2.641 1.789-4.345V61.094c0-1.534.511-2.812 1.534-3.834 1.193-1.193 2.641-1.79 4.345-1.79h33.232c1.533 0 2.3-.852 2.3-2.556v-1.278c0-.852-.255-1.449-.767-1.79-.341-.34-1.533-.51-3.578-.51-1.875-.171-4.772-.171-8.692 0-3.919 0-9.458.085-16.615.255h-27.096c-10.907 0-24.199-.085-39.878-.256-3.578-.17-6.901-.255-9.969-.255h-7.413c-.852 0-1.449-.085-1.789-.256-.852 0-1.79-.17-2.812-.511l-.511-.256-2.045-1.022-1.279-1.278-8.435-8.436L345.859 7.67c-1.023-1.023-2.386-1.534-4.09-1.534H312.22c-1.534 0-2.301-.852-2.301-2.556v-.767c0-1.704.767-2.556 2.301-2.556h75.817l74.898.255c1.533 0 2.897.597 4.089 1.79l44.99 45.245c1.193 1.193 1.79 2.556 1.79 4.09l-.256 147.751c0 1.874-.596 3.323-1.789 4.345l-44.735 44.479c-1.533 1.193-2.897 1.789-4.089 1.789h-77.454l-71.319-.256c-2.727-.511-4.261-2.13-4.602-4.856v-32.72c0-.852-.341-1.619-1.022-2.301a41.77 41.77 0 00-4.346-3.323 97.146 97.146 0 01-4.345-3.579c-.341-.341-.938-.511-1.79-.511l-30.163-.256z" fill="#FF4D00"/></svg>
